Desktop/project_createx/public/images/Services/suitcase.svg

<svg width="48" height="48" viewBox="0 0 48 48" fill="none" xmlns="http://www.w3.org/2000/svg">
<g clip-path="url(#clip0_16317_2542)">
<path d="M45.1875 10.125H35.0613V7.3125C35.0613 3.69394 32.1173 0.75 28.4988 0.75H19.5036C15.885 0.75 12.9411 3.69394 12.9411 7.3125V10.125H2.8125C1.26169 10.125 0 11.3867 0 12.9375V22.875C0 24.2908 0.7515 25.5341 1.87622 26.2281V44.4375C1.87622 45.9883 3.13791 47.25 4.68872 47.25H20.6259C21.1436 47.25 21.5634 46.8303 21.5634 46.3125C21.5634 45.7947 21.1436 45.375 20.6259 45.375H4.68872C4.17178 45.375 3.75122 44.9544 3.75122 44.4375V26.8078C3.813 26.8106 3.87497 26.8125 3.9375 26.8125H9.90928C10.0507 28.8795 11.7764 30.5183 13.8786 30.5183C15.9807 30.5183 17.7065 28.8795 17.8478 26.8125H30.1545C30.296 28.8795 32.0216 30.5183 34.1238 30.5183C36.2259 30.5183 37.9517 28.8795 38.0931 26.8125H44.0625C44.1258 26.8125 44.1886 26.8107 44.2512 26.8077V44.4375C44.2512 44.9544 43.8307 45.375 43.3137 45.375H28.1265C27.6088 45.375 27.189 45.7947 27.189 46.3125C27.189 46.8303 27.6088 47.25 28.1265 47.25H43.3137C44.8645 47.25 46.1262 45.9883 46.1262 44.4375V26.2266C47.2496 25.5323 48 24.2899 48 22.875V12.9375C48 11.3867 46.7383 10.125 45.1875 10.125ZM14.8161 7.3125C14.8161 4.72781 16.9189 2.625 19.5036 2.625H28.4988C31.0835 2.625 33.1863 4.72781 33.1863 7.3125V10.125H31.3113V7.3125C31.3113 5.76169 30.0496 4.5 28.4988 4.5H19.5036C17.9527 4.5 16.6911 5.76169 16.6911 7.3125V10.125H14.8161V7.3125ZM29.4363 7.3125V10.125H18.5661V7.3125C18.5661 6.79556 18.9866 6.375 19.5036 6.375H28.4988C29.0157 6.375 29.4363 6.79556 29.4363 7.3125ZM15.9833 25.8732C15.9833 25.8738 15.9833 25.8744 15.9833 25.875C15.9833 25.8756 15.9833 25.8762 15.9833 25.8768V26.5384C15.9833 27.699 15.0392 28.6433 13.8786 28.6433C12.7179 28.6433 11.7738 27.699 11.7738 26.5385V24.1875H15.9833V25.8732V25.8732ZM36.2286 26.5385C36.2286 27.699 35.2844 28.6433 34.1238 28.6433C32.9632 28.6433 32.019 27.699 32.019 26.5385V24.1875H36.2286V26.5385V26.5385ZM46.125 22.875C46.125 24.0123 45.1998 24.9375 44.0625 24.9375H38.1036V23.25C38.1036 22.7322 37.6837 22.3125 37.1661 22.3125H31.0815C30.5638 22.3125 30.144 22.7322 30.144 23.25V24.9375H17.8583V23.25C17.8583 22.7322 17.4385 22.3125 16.9208 22.3125H10.8363C10.3186 22.3125 9.89878 22.7322 9.89878 23.25V24.9375H3.9375C2.80022 24.9375 1.875 24.0123 1.875 22.875V12.9375C1.875 12.4206 2.29556 12 2.8125 12H13.8786H17.6286H30.3738H34.1238H45.1875C45.7044 12 46.125 12.4206 46.125 12.9375V22.875Z" fill="#7772F1"/>
<path d="M25.0886 45.6497C24.9133 45.4753 24.6724 45.375 24.4249 45.375C24.1783 45.375 23.9373 45.4753 23.7621 45.6497C23.5877 45.8241 23.4883 46.0659 23.4883 46.3125C23.4883 46.5591 23.5877 46.8009 23.7621 46.9753C23.9373 47.1497 24.1792 47.25 24.4249 47.25C24.6714 47.25 24.9133 47.1497 25.0886 46.9753C25.263 46.8009 25.3624 46.5591 25.3624 46.3125C25.3624 46.0659 25.263 45.8241 25.0886 45.6497Z" fill="#7772F1"/>
<path d="M30.8522 14.9466C30.6779 14.7722 30.436 14.6719 30.1895 14.6719C29.9429 14.6719 29.701 14.7722 29.5266 14.9466C29.3522 15.1209 29.252 15.3628 29.252 15.6094C29.252 15.8559 29.3523 16.0978 29.5266 16.2722C29.701 16.4466 29.9429 16.5469 30.1895 16.5469C30.436 16.5469 30.6779 16.4466 30.8522 16.2722C31.0266 16.0978 31.127 15.8559 31.127 15.6094C31.127 15.3628 31.0265 15.1209 30.8522 14.9466Z" fill="#7772F1"/>
<path d="M46.7782 14.6719H34.1309C33.6132 14.6719 33.1934 15.0916 33.1934 15.6094C33.1934 16.1272 33.6132 16.5469 34.1309 16.5469H46.7782C47.296 16.5469 47.7157 16.1272 47.7157 15.6094C47.7157 15.0916 47.2959 14.6719 46.7782 14.6719Z" fill="#7772F1"/>
</g>
<defs>
<clipPath id="clip0_16317_2542">
<rect width="48" height="48" fill="white"/>
</clipPath>
</defs>
</svg>

<svg xmlns="http://www.w3.org/2000/svg" width="48" height="48" fill="none"><g fill="#7772F1" clip-path="url(#a)"><path d="M45.188 10.125H35.06V7.313A6.57 6.57 0 0 0 28.5.75h-8.995a6.57 6.57 0 0 0-6.563 6.563v2.812H2.813A2.816 2.816 0 0 0 0 12.938v9.937c0 1.416.752 2.66 1.876 3.353v18.21A2.816 2.816 0 0 0 4.69 47.25h15.937a.938.938 0 0 0 0-1.875H4.689a.94.94 0 0 1-.938-.937v-17.63q.093.005.187.005h5.971a3.984 3.984 0 0 0 3.97 3.705 3.984 3.984 0 0 0 3.969-3.706h12.307a3.984 3.984 0 0 0 3.969 3.706 3.984 3.984 0 0 0 3.97-3.706h5.968q.096 0 .19-.004v17.63c0 .516-.421.937-.938.937H28.127a.938.938 0 0 0 0 1.875h15.187a2.816 2.816 0 0 0 2.812-2.812V26.227A3.94 3.94 0 0 0 48 22.875v-9.937a2.816 2.816 0 0 0-2.812-2.813M14.816 7.313a4.693 4.693 0 0 1 4.688-4.688h8.995a4.693 4.693 0 0 1 4.687 4.688v2.812h-1.875V7.313A2.816 2.816 0 0 0 28.5 4.5h-8.995a2.816 2.816 0 0 0-2.813 2.813v2.812h-1.875zm14.62 0v2.812h-10.87V7.313c0-.517.42-.938.938-.938h8.995c.517 0 .937.42.937.938m-13.453 18.56v.665c0 1.161-.944 2.105-2.104 2.105a2.107 2.107 0 0 1-2.105-2.105v-2.35h4.21zm20.246.665c0 1.161-.945 2.105-2.105 2.105a2.107 2.107 0 0 1-2.105-2.105v-2.35h4.21zm9.896-3.663a2.065 2.065 0 0 1-2.062 2.063h-5.96V23.25a.94.94 0 0 0-.937-.937h-6.084a.94.94 0 0 0-.938.937v1.688H17.858V23.25a.94.94 0 0 0-.937-.937h-6.085a.94.94 0 0 0-.937.937v1.688H3.938a2.065 2.065 0 0 1-2.063-2.063v-9.937c0-.517.42-.938.938-.938h42.374c.517 0 .938.42.938.938z"/><path d="M25.089 45.65a.95.95 0 0 0-.664-.275c-.247 0-.488.1-.663.275a.94.94 0 0 0-.274.663c0 .246.1.488.274.662a.95.95 0 0 0 .663.275c.246 0 .488-.1.664-.275a.94.94 0 0 0 .273-.663c0-.246-.099-.488-.273-.662M30.852 14.947a.94.94 0 0 0-.663-.275c-.246 0-.488.1-.662.275a.94.94 0 0 0-.275.662c0 .247.1.489.275.663a.95.95 0 0 0 .662.275c.247 0 .489-.1.663-.275a.95.95 0 0 0 .275-.663c0-.246-.1-.488-.275-.662M46.778 14.672H34.131a.938.938 0 0 0 0 1.875h12.647a.937.937 0 1 0 0-1.875"/></g><defs><clipPath id="a"><path fill="#fff" d="M0 0h48v48H0z"/></clipPath></defs></svg>
